!!!COM: Music21
!!!OTL: Polca de Pacios de Mourisco
!!!OMV: pezas_polca_polca-de-pacios-de-mourisco_polca-de-pacios-de-mourisco-partitura.musicxml
**kern
*I"Bagpipes
*I'Bag
*clefG^2
*k[]
*M2/4
=1
!LO:TX:a:t=Allegretto
*MM119
!LO:TX:a:t=[quarter]=119
4.r
16ccLL
16ddJJ
=||
16eeLL
16cccJ
8eeJ
8ccL
16ccL
16ddJJ
=
16eeLL
16cccJ
8eeJ
8ccL
8ccJ
=
8eeL
8ddJ
8ggL
16ffL
16eeJJ
=
16ddLL
16ffJ
8eeJ
8ccL
16ccL
16ddJJ
=
16eeLL
16cccJ
8eeJ
8ccL
16ccL
16ddJJ
=
16eeLL
16cccJ
8eeJ
8ccL
8ccJ
=
8eeL
8ddJ
8ggL
16ffL
16eeJJ
!!linebreak:original
=
16ddLL
16eeJ
[8ccJ
8ccL]
16ccL
16ddJJ
=||
16eeLL
16cccJ
8eeJ
8ccL
16ccL
16ddJJ
=
16eeLL
16cccJ
8eeJ
8ccL
8ccJ
=
8eeL
8ddJ
8ggL
16ffL
16eeJJ
=
16ddLL
16ffJ
8eeJ
8ccL
16ccL
16ddJJ
=
16eeLL
16cccJ
8eeJ
8ccL
16ccL
16ddJJ
=
16eeLL
16cccJ
8eeJ
8ccL
8ccJ
!!linebreak:original
=
8eeL
8ddJ
8ggL
16ffL
16eeJJ
=||
16ddLL
16eeJ
[8ccJ
8ccL]
8ddJ
=||
8eeL
8ffJ
8ggL
8ffJ
=
4.aa
8gg
=
8ggL
8ffJ
8eeL
8ggJ
=
4.ff
8ff
=
8ffL
8eeJ
8ddL
8eeJ
=
8ffL
8ggJ
8ddL
8eeJ
!!linebreak:original
=
8ffL
8ggJ
8.eeL
16ddJk
=
4.cc
8dd
=||
8eeL
8ffJ
8ggL
8ffJ
=
4.aa
8gg
=
8ggL
8ffJ
8eeL
8ggJ
=
4.ff
8ff
=
8ffL
8eeJ
8ddL
8eeJ
=
8ffL
8ggJ
8ddL
8eeJ
!!linebreak:original
=
8ffL
8ggJ
8.eeL
16ddJk
=
4.cc
16ddLL
16eeJJ
=||
8ffL
8eeJ
8ddL
8eeJ
=
8eeL
8ddJ
8ccL
8ddJ
=
8ddL
8ccJ
8bL
8ccJ
=
8dd
4cc
16ddLL
16eeJJ
=
8ffL
8eeJ
8ddL
8eeJ
=
8eeL
8ddJ
8ccL
16ddL
16eeJJ
!!linebreak:original
=
16ddLL
16ee
16dd
16ccJJ
16bLL
16cc
16dd
16eeJJ
=
4.cc
16ddLL
16eeJJ
=||
8ffL
8eeJ
8ddL
8eeJ
=
8eeL
8ddJ
8ccL
8ddJ
=
8ddL
8ccJ
8bL
8ccJ
=
8dd
4cc
16ddLL
16eeJJ
=
8ffL
8eeJ
8ddL
8eeJ
=
8eeL
8ddJ
8ccL
16ddL
16eeJJ
!!linebreak:original
=
16ddLL
16ee
16dd
16ccJJ
16bLL
16cc
16dd
16eeJJ
=
4.cc
16ccLL
16ddJJ
=||
16ddLL
16eeJ
8ccJ
8ccc
8r
==
*-
